assets/images/logo_dark_mode.svg

<svg xmlns="http://www.w3.org/2000/svg" width="1437" height="1341" fill="none" viewBox="0 0 1437 1341"><path fill="#fff" fill-rule="evenodd" d="m756.32 171.886 83.883-119.997c17.916-25.63 53.195-31.868 78.798-13.933s31.834 53.251 13.918 78.881l-83.883 119.997 124.957-22.094c30.777-5.441 60.127 15.121 65.557 45.926 5.44 30.804-15.1 60.187-45.874 65.628l-124.957 22.094 119.872 83.971c25.599 17.935 31.829 53.252 13.919 78.881-17.918 25.63-53.197 31.868-78.8 13.933l-119.872-83.971 22.071 125.087c5.436 30.805-15.104 60.188-45.877 65.629-30.772 5.441-60.125-15.12-65.56-45.925l-22.071-125.088-192.882 275.924c-17.916 25.629-53.195 31.867-78.798 13.932s-31.834-53.251-13.918-78.88l192.882-275.924-124.957 22.094c-30.772 5.441-60.125-15.121-65.56-45.925-5.435-30.805 15.105-60.188 45.877-65.629l124.957-22.094-119.872-83.971c-25.603-17.935-31.834-53.251-13.918-78.881 17.917-25.63 53.196-31.867 78.798-13.932l119.872 83.971-22.07-125.088c-5.436-30.805 15.104-60.188 45.877-65.63 30.772-5.44 60.125 15.121 65.56 45.926z" clip-rule="evenodd"/><path fill="#fff" d="M147.126 1249.05c-80.094 0-126.425-28.84-141.704-63.6C1.725 1177.31 0 1168.93 0 1160.8c0-25.15 18.976-42.4 44.852-42.4 19.716 0 33.024 6.16 47.07 25.88 12.323 17.5 33.024 24.65 56.436 24.65 31.298 0 50.52-12.82 50.52-30.32 0-16.76-13.8-23.91-53.724-31.06l-35.734-6.41C38.691 1088.57 0 1052.82 0 997.602 0 926.113 61.61 881 146.14 881c70.482 0 121.003 24.898 139.486 69.271 2.957 7.149 4.436 13.805 4.436 21.94 0 23.666-17.251 39.689-43.374 39.939-22.18 0-36.227-7.65-48.796-26.627-11.582-17.749-28.094-24.405-50.52-24.405-29.08 0-43.867 12.819-43.867 28.842 0 16.02 15.28 23.67 50.767 30.08l35.734 6.4c76.397 13.81 112.378 45.12 112.378 102.8 0 73.22-57.175 119.81-155.258 119.81M386.174 1341c-29.573 0-50.521-16.52-50.521-52.26v-271.91c0-35.744 20.948-52.261 50.521-52.261s50.767 16.517 50.767 52.511v1.68a1.027 1.027 0 0 0 1.984.38c13.181-32.889 41.893-52.352 80.82-52.352 68.511 0 106.463 50.042 106.463 140.022 0 89.73-37.706 140.02-105.231 140.02-39.856 0-69.279-18.93-82.013-50.28a1.19 1.19 0 0 0-1.096-.75c-.648 0-1.174.53-1.174 1.18v91.76c0 35.74-20.947 52.26-50.52 52.26m93.401-172.07c26.616 0 43.127-24.16 43.127-62.12 0-37.72-16.758-62.12-43.127-62.12s-43.127 24.4-43.374 62.37c.247 38.21 16.758 61.87 43.374 61.87m259.503 77.9c-49.535 0-91.676-34.02-91.676-83.08 0-52.26 40.17-80.61 112.87-85.04l46.362-2.88c2.746-.17 4.119-.25 5.26-.58a11.03 11.03 0 0 0 7.765-8.26c.252-1.16.252-2.54.252-5.29 0-18.25-13.801-28.11-32.777-28.11-15.772 0-23.658 4.19-41.156 20.22-11.829 10.84-24.644 16.27-39.677 16.27-23.905 0-40.909-14.79-40.909-35.75 0-6.16.493-10.1 1.971-15.03 10.351-34.763 57.421-55.47 125.193-55.47 75.411 0 125.931 37.72 125.931 92.94v141.5c0 35-20.947 50.78-50.027 50.78-26.258 0-44.84-12.72-48.411-41.46-.083-.67-.648-1.19-1.322-1.19-.485 0-.931.27-1.166.7-14.491 26.17-47.214 39.73-78.483 39.73m37.706-67.54c22.426 0 43.127-12.58 43.127-32.55 0-5.49 0-8.23-.921-10.34a11.05 11.05 0 0 0-6.396-5.98c-2.168-.77-4.904-.58-10.378-.2l-25.186 1.73c-19.223 1.48-30.066 10.6-30.066 23.92 0 14.79 12.076 23.42 29.82 23.42m230.426 69.76c-31.055 0-50.524-17.75-50.524-52.26v-181.68c0-32.792 19.715-50.541 49.284-50.541 28.34 0 47.81 17.749 47.81 50.781v8.8c0 .58.48 1.06 1.07 1.06.52 0 .97-.39 1.06-.9 6.53-38.589 24.45-57.522 51.35-57.522 10.11 0 18.48 2.465 24.65 7.149 10.1 7.395 15.27 20.461 15.27 39.193 0 16.03-4.68 28.11-14.04 36.49-9.37 8.38-23.41 12.82-41.9 13.56-27.11.98-33.51 9.86-33.51 39.68v93.93c0 34.51-19.47 52.26-50.52 52.26m213.17 0c-29.57 0-50.52-16.52-50.52-52.26V933.262c0-35.745 20.95-52.262 50.52-52.262s50.52 16.517 50.52 52.508v131.742c0 .76.62 1.38 1.38 1.38.38 0 .74-.16 1-.43l75.99-80.184c14.29-15.037 26.12-21.447 41.89-21.447 26.62 0 45.84 18.735 45.84 44.621 0 16.02-4.93 25.64-20.21 39.93l-33.1 30.87c-6.77 6.32-10.15 9.47-10.56 13.62s2.3 7.9 7.71 15.42l39.4 54.72c11.58 16.27 15.04 25.15 15.04 38.21 0 28.35-19.72 47.09-49.05 47.09-23.9 0-36.72-8.88-54.21-36.98l-28.17-45.61c-3.93-6.36-5.9-9.54-8.6-10.94a11.05 11.05 0 0 0-7.23-1.02c-2.99.6-5.76 3.11-11.29 8.14-2.18 1.99-3.27 2.98-4.05 4.17-.64.99-1.12 2.08-1.42 3.22-.36 1.37-.36 2.85-.36 5.8v20.96c0 35.74-20.95 52.26-50.52 52.26"/></svg>

<svg width="1437" height="1341" viewBox="0 0 1437 1341" fill="none" xmlns="http://www.w3.org/2000/svg">
<path fill-rule="evenodd" clip-rule="evenodd" d="M756.32 171.886L840.203 51.8886C858.119 26.2589 893.398 20.0211 919.001 37.9561C944.604 55.891 950.835 91.2071 932.919 116.837L849.036 236.834L973.993 214.74C1004.77 209.299 1034.12 229.861 1039.55 260.666C1044.99 291.47 1024.45 320.853 993.676 326.294L868.719 348.388L988.591 432.359C1014.19 450.294 1020.42 485.611 1002.51 511.24C984.592 536.87 949.313 543.108 923.71 525.173L803.838 441.202L825.909 566.289C831.345 597.094 810.805 626.477 780.032 631.918C749.26 637.359 719.907 616.798 714.472 585.993L692.401 460.905L499.519 736.829C481.603 762.458 446.324 768.696 420.721 750.761C395.118 732.826 388.887 697.51 406.803 671.881L599.685 395.957L474.728 418.051C443.956 423.492 414.603 402.93 409.168 372.126C403.733 341.321 424.273 311.938 455.045 306.497L580.002 284.403L460.13 200.432C434.527 182.497 428.296 147.181 446.212 121.551C464.129 95.9214 499.408 89.6836 525.01 107.619L644.882 191.59L622.812 66.5017C617.376 35.6969 637.916 6.31383 668.689 0.872854C699.461 -4.56812 728.814 15.9933 734.249 46.7981L756.32 171.886Z" fill="white"/>
<path d="M147.126 1249.05C67.0321 1249.05 20.7011 1220.21 5.42172 1185.45C1.7251 1177.31 0 1168.93 0 1160.8C0 1135.65 18.976 1118.4 44.8524 1118.4C64.5677 1118.4 77.8755 1124.56 91.9227 1144.28C104.245 1161.78 124.946 1168.93 148.358 1168.93C179.656 1168.93 198.878 1156.11 198.878 1138.61C198.878 1121.85 185.078 1114.7 145.154 1107.55L109.42 1101.14C38.6913 1088.57 0 1052.82 0 997.602C0 926.113 61.6104 881 146.14 881C216.622 881 267.143 905.898 285.626 950.271C288.583 957.42 290.062 964.076 290.062 972.211C290.062 995.877 272.811 1011.9 246.688 1012.15C224.508 1012.15 210.461 1004.5 197.892 985.523C186.31 967.774 169.798 961.118 147.372 961.118C118.292 961.118 103.505 973.937 103.505 989.96C103.505 1005.98 118.785 1013.63 154.272 1020.04L190.006 1026.44C266.403 1040.25 302.384 1071.56 302.384 1129.24C302.384 1202.46 245.209 1249.05 147.126 1249.05Z" fill="white"/>
<path d="M386.174 1341C356.601 1341 335.653 1324.48 335.653 1288.74V1016.83C335.653 981.086 356.601 964.569 386.174 964.569C415.747 964.569 436.941 981.086 436.941 1017.08V1018.76C436.941 1019.33 437.4 1019.79 437.967 1019.79C438.388 1019.79 438.768 1019.53 438.925 1019.14C452.106 986.251 480.818 966.788 519.745 966.788C588.256 966.788 626.208 1016.83 626.208 1106.81C626.208 1196.54 588.502 1246.83 520.977 1246.83C481.121 1246.83 451.698 1227.9 438.964 1196.55C438.783 1196.1 438.349 1195.8 437.868 1195.8C437.22 1195.8 436.694 1196.33 436.694 1196.98V1288.74C436.694 1324.48 415.747 1341 386.174 1341ZM479.575 1168.93C506.191 1168.93 522.702 1144.77 522.702 1106.81C522.702 1069.09 505.944 1044.69 479.575 1044.69C453.206 1044.69 436.448 1069.09 436.201 1107.06C436.448 1145.27 452.959 1168.93 479.575 1168.93Z" fill="white"/>
<path d="M739.078 1246.83C689.543 1246.83 647.402 1212.81 647.402 1163.75C647.402 1111.49 687.572 1083.14 760.272 1078.71L806.634 1075.83C809.38 1075.66 810.753 1075.58 811.894 1075.25C815.808 1074.14 818.793 1070.96 819.659 1066.99C819.911 1065.83 819.911 1064.45 819.911 1061.7C819.911 1043.45 806.11 1033.59 787.134 1033.59C771.362 1033.59 763.476 1037.78 745.978 1053.81C734.149 1064.65 721.334 1070.08 706.301 1070.08C682.396 1070.08 665.392 1055.29 665.392 1034.33C665.392 1028.17 665.885 1024.23 667.363 1019.3C677.714 984.537 724.784 963.83 792.556 963.83C867.967 963.83 918.487 1001.55 918.487 1056.77V1198.27C918.487 1233.27 897.54 1249.05 868.46 1249.05C842.202 1249.05 823.62 1236.33 820.049 1207.59C819.966 1206.92 819.401 1206.4 818.727 1206.4C818.242 1206.4 817.796 1206.67 817.561 1207.1C803.07 1233.27 770.347 1246.83 739.078 1246.83ZM776.784 1179.29C799.21 1179.29 819.911 1166.71 819.911 1146.74C819.911 1141.25 819.911 1138.51 818.99 1136.4C817.773 1133.61 815.458 1131.45 812.594 1130.42C810.426 1129.65 807.69 1129.84 802.216 1130.22L777.03 1131.95C757.807 1133.43 746.964 1142.55 746.964 1155.87C746.964 1170.66 759.04 1179.29 776.784 1179.29Z" fill="white"/>
<path d="M1007.21 1249.05C976.155 1249.05 956.686 1231.3 956.686 1196.79V1015.11C956.686 982.318 976.401 964.569 1005.97 964.569C1034.31 964.569 1053.78 982.318 1053.78 1015.35V1024.15C1053.78 1024.73 1054.26 1025.21 1054.85 1025.21C1055.37 1025.21 1055.82 1024.82 1055.91 1024.31C1062.44 985.721 1080.36 966.788 1107.26 966.788C1117.37 966.788 1125.74 969.253 1131.91 973.937C1142.01 981.332 1147.18 994.398 1147.18 1013.13C1147.18 1029.16 1142.5 1041.24 1133.14 1049.62C1123.77 1058 1109.73 1062.44 1091.24 1063.18C1064.13 1064.16 1057.73 1073.04 1057.73 1102.86V1196.79C1057.73 1231.3 1038.26 1249.05 1007.21 1249.05Z" fill="white"/>
<path d="M1220.38 1249.05C1190.81 1249.05 1169.86 1232.53 1169.86 1196.79V933.262C1169.86 897.517 1190.81 881 1220.38 881C1249.95 881 1270.9 897.517 1270.9 933.508V1065.25C1270.9 1066.01 1271.52 1066.63 1272.28 1066.63C1272.66 1066.63 1273.02 1066.47 1273.28 1066.2L1349.27 986.016C1363.56 970.979 1375.39 964.569 1391.16 964.569C1417.78 964.569 1437 983.304 1437 1009.19C1437 1025.21 1432.07 1034.83 1416.79 1049.12L1383.69 1079.99C1376.92 1086.31 1373.54 1089.46 1373.13 1093.61C1372.72 1097.76 1375.43 1101.51 1380.84 1109.03L1420.24 1163.75C1431.82 1180.02 1435.28 1188.9 1435.28 1201.96C1435.28 1230.31 1415.56 1249.05 1386.23 1249.05C1362.33 1249.05 1349.51 1240.17 1332.02 1212.07L1303.85 1166.46C1299.92 1160.1 1297.95 1156.92 1295.25 1155.52C1293.02 1154.37 1290.47 1154.01 1288.02 1154.5C1285.03 1155.1 1282.26 1157.61 1276.73 1162.64C1274.55 1164.63 1273.46 1165.62 1272.68 1166.81C1272.04 1167.8 1271.56 1168.89 1271.26 1170.03C1270.9 1171.4 1270.9 1172.88 1270.9 1175.83V1196.79C1270.9 1232.53 1249.95 1249.05 1220.38 1249.05Z" fill="white"/>
</svg>
